magnify-minus-cursor.svg

<svg fill="currentColor" viewBox="0 0 24 24"><path d="M11 4a7 7 0 0 1 7 7c0 1.5-.5 3-1.39 4.19l.81.81H18l5 5-2 2-5-5v-.59l-.81-.81c-3.09 2.32-7.48 1.69-9.8-1.4S3.7 7.72 6.79 5.4C8 4.5 9.5 4 11 4m-4 6v2h8v-2zM1 1v7l7-7z"/></svg>

<svg  viewBox="0 0 24 24" fill="currentColor"><path  d="M11,4A7,7 0 0,1 18,11C18,12.5 17.5,14 16.61,15.19L17.42,16H18L23,21L21,23L16,18V17.41L15.19,16.6C12.1,18.92 7.71,18.29 5.39,15.2C3.07,12.11 3.7,7.72 6.79,5.4C8,4.5 9.5,4 11,4M7,10V12H15V10H7M1,1V8L8,1H1Z"/></svg>
